frontend/src/images/icon-Arrow.svg

<svg width="20" height="20" viewBox="0 0 20 20" xmlns="http://www.w3.org/2000/svg" xmlns:xlink="http://www.w3.org/1999/xlink"><title>icon-Arrow</title><defs><path d="M18.75 8.5H4.25l5.375-5.375c.5-.5.5-1.25 0-1.75s-1.25-.5-1.75 0l-7.5 7.5c-.5.5-.5 1.25 0 1.75l7.5 7.5c.25.25.5.375.875.375s.625-.125.875-.375c.5-.5.5-1.25 0-1.75L4.25 11h14.5c.75 0 1.25-.5 1.25-1.25s-.5-1.25-1.25-1.25z" id="a"/></defs><use fill="#3D3D40" fill-rule="nonzero" xlink:href="#a"/></svg>

<?xml version="1.0" encoding="UTF-8" standalone="no"?>
<svg width="20px" height="20px" viewBox="0 0 20 20" version="1.1" xmlns="http://www.w3.org/2000/svg" xmlns:xlink="http://www.w3.org/1999/xlink">
    <!-- Generator: Sketch 47.1 (45422) - http://www.bohemiancoding.com/sketch -->
    <title>icon-Arrow</title>
    <desc>Created with Sketch.</desc>
    <defs>
        <path d="M18.75,8.5 L4.25,8.5 L9.625,3.125 C10.125,2.625 10.125,1.875 9.625,1.375 C9.125,0.875 8.375,0.875 7.875,1.375 L0.375,8.875 C-0.125,9.375 -0.125,10.125 0.375,10.625 L7.875,18.125 C8.125,18.375 8.375,18.5 8.75,18.5 C9.125,18.5 9.375,18.375 9.625,18.125 C10.125,17.625 10.125,16.875 9.625,16.375 L4.25,11 L18.75,11 C19.5,11 20,10.5 20,9.75 C20,9 19.5,8.5 18.75,8.5 Z" id="path-1"></path>
    </defs>
    <g id="Symbols" stroke="none" stroke-width="1" fill="none" fill-rule="evenodd">
        <g id="icon-Arrow">
            <mask id="mask-2" fill="white">
                <use xlink:href="#path-1"></use>
            </mask>
            <use id="Arrow" fill="#3D3D40" fill-rule="nonzero" xlink:href="#path-1"></use>
        </g>
    </g>
</svg>
